X:1
Q:1/4=100
L:1/8
M:1/4
K:C clef=G2
V:1
%%MIDI program 73
DD-|D2-D/2|z/2D/2G-|G2-G/2|
z/2B/2A-|A2-|AB-|B2-B/2|
z/2d/2B-|B2-B/2|z/2c/4B/4A-|AG-|
GA-|A3|z2|z2|
z/2D/2D-|D2-D/2|z/2D/2G-|G2-G/2|
z/2B/2A-|A3|zd-|d2-d/2|
z/2^F/2B-|B2-B/2|z/2A/2G-|G2-G/2|
z/2E/2D-|D3|z2|z2|
z/2D/2^F-|^F2-^F/2|z/2G/2A-|A2-A/2|
z/2d/2^A-|^A3|zG-|Gz|
z/2D/2G-|G2-G/2|z/2G/2^D-|^D2-^D/2|
z/2E/2D-|D3|z2|z2|
z/2D/2D-|D2-D/2|z/2G/2A-|A2-A/2|
z/2e/2^A-|^A2-|^AG-|Gz|
z/2G/2^c-|^c2-^c/2|z/2^c/2^c-|^c2-^c/2|
z/2^c/2d-|d3|z2|zD-|
Dc-|c2-c/2|z/2B/2A-|Ae-|
ed-|d2-d/2|z/2c/2B-|BD-|
Dc-|c2-c/2|z/2B/2A-|Ae-|
ed-|d2-|d2-|dB-|
BB-|B2-B/2|z/2B/2c-|cd-|
de-|e3|ze-|ee-|
ed-|d2-d/2|z/2d/2d-|d2-d/2|
z/2d/2B-|B2-|B3|zB-|
BB-|B2-B/2|z/2B/2c-|cd-|
de-|e2-|ee|ze-|
ed-|d2-d/2|z/2d/2d-|d2-d/2|
z/2^F/2G-|G2-|Gz|z
L:1/8
M:1/4
K:C clef=G2
V:2
%%MIDI program 1
DD-|D2-D/2|z/2D/2G-|G2-G/2|
z/2B/2A-|A2-|AB-|B2-B/2|
z/2d/2B-|B2-B/2|z/2c/4B/4A-|AG-|
G[^F-A-]|[^FA]3|z2|z2|
z/2D/2D-|D2-D/2|z/2D/2G-|G2-G/2|
z/2B/2A-|A3|zd-|d2-d/2|
z/2^F/2B-|B2-B/2|z/2A/2G-|G2-G/2|
z/2E/2D-|D3|z2|z2|
z/2D/2[D-^F-]|[D-^F-]2[D^F]/2|z/2[DG]/2[D-A-]|[D-A-]2[DA]/2|
z/2[Dd]/2[D-^A-]|[D^A]3|z[D-G-]|[DG]z|
z/2D/2[^D-G-]|[^D-G-]2[^DG]/2|z/2[^DG]/2^D-|^D2-^D/2|
z/2E/2D-|D3|z2|z2|
z/2D/2[B,-D-]|[B,-D-]2[B,D]/2|z/2[B,G]/2[D-A-]|[D-A-]2[DA]/2|
z/2[De]/2[D-^A-]|[D-^A-]2|[D^A][D-G-]|[DG]z|
z/2G/2[G-^c-]|[G-^c-]2[G^c]/2|z/2[G^c]/2[G-^c-]|[G-^c-]2[G^c]/2|
z/2[G^c]/2[^F-d-]|[^Fd]3|z2|zD-|
D[c-A-]|[c-A-]2[cA]/2|z/2[BG]/2[A-^F-]|[A^F][e-c-]|
[ec][d-B-]|[d-B-]2[dB]/2|z/2[Ac]/2[G-B-]|[GB]D-|
D[c-A-]|[c-A-]2[cA]/2|z/2[BG]/2[^F-A-]|[^FA][c-e-]|
[ce][B-d-]|[B-d-]2|[B-d-]2|[Bd][B-G-]|
[BG][B-G-]|[B-G-]2[BG]/2|z/2[BG]/2[c-G-]|[cG][d-G-]|
[dG][G-c-e-]|[Gce]3|z[G-c-e-]|[Gce][^G-A-e-]|
[^GAe][B-G-d-]|[B-G-d-]2[BGd]/2|z/2[BGd]/2[A-^F-d-]|[A-^F-d-]2[A^Fd]/2|
z/2[A^Fd]/2[G-B-]|[G-B-]2|[GB]3|z[G-B-]|
[GB][G-B-]|[G-B-]2[GB]/2|z/2[GB]/2[G-c-]|[Gc][G-d-]|
[Gd][G-c-e-]|[G-c-e-]2|[Gce][Gce]|z[^G-A-e-]|
[^GAe][G-B-d-]|[G-B-d-]2[GBd]/2|z/2[GBd]/2[d-A-^F-]|[d-A-^F-]2[dA^F]/2|
z/2^F/2G-|G2-|Gz|z
L:1/8
M:1/4
K:C clef=F4
V:3
%%MIDI program 1
z[G,-B,-]|[G,B,][G,-]|[G,][G,-B,-]|[G,B,][G,-D-]|
[G,D][^F,-]|[^F,][^F,-D-]|[^F,D][^F,-A,-]|[^F,A,][^F,-D-]|
[^F,D][G,-]|[G,][G,-D-]|[G,D][G,-B,-]|[G,B,][G,-D-]|
[G,D]D,-|D,D-|D^C-|^CD-|
D[G,-B,-]|[G,B,][G,-]|[G,][G,-B,-]|[G,B,][G,-D-]|
[G,D][^F,-]|[^F,][^F,-D-]|[^F,D][^F,-A,-]|[^F,A,][^F,-D-]|
[^F,D][A,,-]|[A,,][A,,-^C-]|[A,,^C][A,,-A,-]|[A,,A,][A,,-^C-]|
[A,,^C][D,-^F,-]|[D,^F,]D,-|D,^F,-|^F,A,-|
A,[D,-C-A,-]|[D,CA,][D,-C-A,-]|[D,CA,][D,-^F,-C-]|[D,^F,C][D,-^F,-C-]|
[D,^F,C][A,,-]|[A,,][A,,-G,-^A,-]|[A,,G,^A,][A,,-G,-^A,-]|[A,,G,^A,][A,,-G,-^A,-]|
[A,,G,^A,][^D,-G,-^A,-]|[^D,G,^A,][^D,-G,-^A,-]|[^D,G,^A,][^C,-G,-^A,-]|[^C,G,^A,][^C,-G,-^A,-]|
[^C,G,^A,][D,-]|[D,][D,-^F,-A,-]|[D,^F,A,][D,-^F,-A,-]|[D,^F,A,][D,-^F,-A,-]|
[D,^F,A,][D,-A,-C-]|[D,A,C][D,-A,-C-]|[D,A,C][D,-^F,-C-]|[D,^F,C][D,-^F,-C-]|
[D,^F,C][G,,-]|[G,,][G,,-G,-^A,-]|[G,,G,^A,][G,,-G,-^A,-]|[G,,G,^A,][G,,-G,-^A,-]|
[G,,G,^A,][^D,-]|[^D,][^D,-^A,-]|[^D,^A,][^D,-A,-]|[^D,A,][E,-A,-]|
[E,A,][D,-A,-]|[D,A,]D,,-|D,,A,,-|A,,D,-|
D,D,|^F,A,|CD-|Dz|
zD,|^F,G,|[B,G,]D-|Dz|
zD,|^F,A,|CD-|Dz|
zG,,|B,,D,|^F,G,-|G,z|
zF,|G,B,|DC,|[CG,]B,,|
[B,G,]C,|E,G,|CC,|E,G,|
CC,|E,G,|DD,|^F,A,|
DG,,|B,,D,|G,G,,|B,,D,|
G,F,|G,B,|DE,|[CG,]D,|
[B,G,]C,|E,G,|CC,|E,G,|
CD,|G,B,|DD,|^F,A,|
C[G,B,]|G,D,|B,,G,,-|G,,


